assets/flowers/september_left.svg

<?xml version="1.0" encoding="UTF-8" standalone="no"?>
<svg
   viewBox="0 0 227 656"
   width="227"
   height="656"
   version="1.1"
   id="svg33"
   sodipodi:docname="september_left.svg"
   inkscape:version="1.4.2 (f4327f4, 2025-05-13)"
   xmlns:inkscape="http://www.inkscape.org/namespaces/inkscape"
   xmlns:sodipodi="http://sodipodi.sourceforge.net/DTD/sodipodi-0.dtd"
   xmlns="http://www.w3.org/2000/svg"
   xmlns:svg="http://www.w3.org/2000/svg">
  <defs
     id="defs33" />
  <sodipodi:namedview
     id="namedview33"
     pagecolor="#ffffff"
     bordercolor="#000000"
     borderopacity="0.25"
     inkscape:showpageshadow="2"
     inkscape:pageopacity="0.0"
     inkscape:pagecheckerboard="0"
     inkscape:deskcolor="#d1d1d1"
     inkscape:zoom="0.43493535"
     inkscape:cx="227.62004"
     inkscape:cy="494.32634"
     inkscape:window-width="1127"
     inkscape:window-height="1032"
     inkscape:window-x="1944"
     inkscape:window-y="0"
     inkscape:window-maximized="0"
     inkscape:current-layer="svg33" />
  <path
     d="M138.00,9.00 C134.17,9.17 121.67,8.83 115.00,10.00 C108.33,11.17 99.17,11.33 98.00,16.00 C96.83,20.67 106.33,34.33 108.00,38.00"
     fill="none"
     stroke="black"
     stroke-width="6.00"
     stroke-linecap="round"
     stroke-linejoin="round"
     id="path1"
     style="stroke-width:4;stroke-dasharray:none" />
  <path
     d="M143.00,10.00 C144.83,10.83 149.83,14.83 154.00,15.00 C158.17,15.17 164.00,11.50 168.00,11.00 C172.00,10.50 173.50,9.83 178.00,12.00 C182.50,14.17 190.50,20.17 195.00,24.00 C199.50,27.83 203.33,33.17 205.00,35.00"
     fill="none"
     stroke="black"
     stroke-width="6.00"
     stroke-linecap="round"
     stroke-linejoin="round"
     id="path2"
     style="stroke-width:4;stroke-dasharray:none" />
  <path
     d="M121.00,21.00 C120.50,21.83 118.50,23.83 118.00,26.00 C117.50,28.17 118.00,32.67 118.00,34.00"
     fill="none"
     stroke="black"
     stroke-width="3.41"
     stroke-linecap="round"
     stroke-linejoin="round"
     id="path3"
     style="stroke-width:4;stroke-dasharray:none" />
  <path
     d="M178.00,22.00 C176.83,22.67 173.33,24.00 171.00,26.00 C168.67,28.00 165.17,32.67 164.00,34.00"
     fill="none"
     stroke="black"
     stroke-width="2.83"
     stroke-linecap="round"
     stroke-linejoin="round"
     id="path4"
     style="stroke-width:4;stroke-dasharray:none" />
  <path
     d="M153.00,26.00 C152.67,26.83 152.50,29.17 151.00,31.00 C149.50,32.83 145.17,36.00 144.00,37.00"
     fill="none"
     stroke="black"
     stroke-width="2.83"
     stroke-linecap="round"
     stroke-linejoin="round"
     id="path5"
     style="stroke-width:4;stroke-dasharray:none" />
  <path
     d="M137.00,27.00 L130.00,36.00"
     fill="none"
     stroke="black"
     stroke-width="2.83"
     stroke-linecap="round"
     stroke-linejoin="round"
     id="path6"
     style="stroke-width:4;stroke-dasharray:none" />
  <path
     d="M87.00,34.00 L99.00,50.00"
     fill="none"
     stroke="black"
     stroke-width="2.83"
     stroke-linecap="round"
     stroke-linejoin="round"
     id="path7"
     style="stroke-width:4;stroke-dasharray:none" />
  <path
     d="M194.00,34.00 L175.00,46.00"
     fill="none"
     stroke="black"
     stroke-width="2.83"
     stroke-linecap="round"
     stroke-linejoin="round"
     id="path8"
     style="stroke-width:4;stroke-dasharray:none" />
  <path
     d="m 209,41 c 1.17,2.5 6.67,10 7,15 0.33,5 -1,9.33 -5,15 -4,5.67 -14.17,15.17 -19,19 -4.83,3.83 -5.17,2.83 -10,4 -4.83,1.17 -22.15278,5.37399 -25.32278,5.87399"
     fill="none"
     stroke="#000000"
     stroke-width="5.66"
     stroke-linecap="round"
     stroke-linejoin="round"
     id="path9"
     style="stroke-width:4;stroke-dasharray:none"
     sodipodi:nodetypes="cssssc" />
  <path
     d="M204.00,56.00 C202.67,55.83 199.17,54.67 196.00,55.00 C192.83,55.33 186.83,57.50 185.00,58.00"
     fill="none"
     stroke="black"
     stroke-width="2.00"
     stroke-linecap="round"
     stroke-linejoin="round"
     id="path10"
     style="stroke-width:4;stroke-dasharray:none" />
  <path
     d="M83.00,59.00 C82.33,58.17 82.67,56.00 79.00,54.00 C75.33,52.00 63.67,48.17 61.00,47.00 C58.33,45.83 62.67,47.00 63.00,47.00"
     fill="none"
     stroke="black"
     stroke-width="2.83"
     stroke-linecap="round"
     stroke-linejoin="round"
     id="path11"
     style="stroke-width:4;stroke-dasharray:none" />
  <path
     d="M142.00,60.00 L141.00,73.00"
     fill="none"
     stroke="black"
     stroke-width="2.41"
     stroke-linecap="round"
     stroke-linejoin="round"
     id="path12"
     style="stroke-width:4;stroke-dasharray:none" />
  <path
     d="M58.00,61.00 C58.83,61.00 61.00,60.17 63.00,61.00 C65.00,61.83 68.83,65.17 70.00,66.00"
     fill="none"
     stroke="black"
     stroke-width="2.83"
     stroke-linecap="round"
     stroke-linejoin="round"
     id="path13"
     style="stroke-width:4;stroke-dasharray:none" />
  <path
     d="M125.00,61.00 C124.50,61.67 122.50,62.83 122.00,65.00 C121.50,67.17 122.00,72.50 122.00,74.00"
     fill="none"
     stroke="black"
     stroke-width="2.83"
     stroke-linecap="round"
     stroke-linejoin="round"
     id="path14"
     style="stroke-width:4;stroke-dasharray:none" />
  <path
     d="M158.00,67.00 C156.83,68.50 152.17,73.33 151.00,76.00 C149.83,78.67 151.00,81.83 151.00,83.00"
     fill="none"
     stroke="black"
     stroke-width="2.83"
     stroke-linecap="round"
     stroke-linejoin="round"
     id="path15"
     style="stroke-width:4;stroke-dasharray:none" />
  <path
     d="M178.00,68.00 L189.00,71.00"
     fill="none"
     stroke="black"
     stroke-width="2.83"
     stroke-linecap="round"
     stroke-linejoin="round"
     id="path16"
     style="stroke-width:4;stroke-dasharray:none" />
  <path
     d="M104.00,69.00 L109.00,82.00"
     fill="none"
     stroke="black"
     stroke-width="2.83"
     stroke-linecap="round"
     stroke-linejoin="round"
     id="path17"
     style="stroke-width:4;stroke-dasharray:none" />
  <path
     d="M65.00,74.00 C64.17,73.33 62.83,71.17 60.00,70.00 C57.17,68.83 50.33,68.00 48.00,67.00 C45.67,66.00 47.00,64.17 46.00,64.00 C45.00,63.83 44.00,64.00 42.00,66.00 C40.00,68.00 35.67,71.67 34.00,76.00 C32.33,80.33 27.83,90.33 32.00,92.00 C36.17,93.67 53.83,86.83 59.00,86.00 C64.17,85.17 62.33,86.83 63.00,87.00"
     fill="none"
     stroke="black"
     stroke-width="5.66"
     stroke-linecap="round"
     stroke-linejoin="round"
     id="path18"
     style="stroke-width:4;stroke-dasharray:none" />
  <path
     d="M85.00,86.00 L103.00,91.00"
     fill="none"
     stroke="black"
     stroke-width="2.83"
     stroke-linecap="round"
     stroke-linejoin="round"
     id="path19"
     style="stroke-width:4;stroke-dasharray:none" />
  <path
     d="M155.00,101.00 C153.50,102.83 146.67,107.00 146.00,112.00 C145.33,117.00 150.50,122.50 151.00,131.00 C151.50,139.50 147.83,148.33 149.00,163.00 C150.17,177.67 156.00,203.50 158.00,219.00 C160.00,234.50 160.50,249.83 161.00,256.00"
     fill="none"
     stroke="black"
     stroke-width="6.00"
     stroke-linecap="round"
     stroke-linejoin="round"
     id="path20"
     style="stroke-width:4;stroke-dasharray:none" />
  <path
     d="M70.00,103.00 L53.00,110.00"
     fill="none"
     stroke="black"
     stroke-width="2.83"
     stroke-linecap="round"
     stroke-linejoin="round"
     id="path21"
     style="stroke-width:4;stroke-dasharray:none" />
  <path
     d="M48.00,114.00 C45.67,115.50 36.00,120.67 34.00,123.00 C32.00,125.33 33.00,125.33 36.00,128.00 C39.00,130.67 46.83,137.00 52.00,139.00 C57.17,141.00 64.00,140.17 67.00,140.00 C70.00,139.83 65.50,138.33 70.00,138.00 C74.50,137.67 86.00,138.83 94.00,138.00 C102.00,137.17 113.83,134.50 118.00,133.00 C122.17,131.50 116.17,131.83 119.00,129.00 C121.83,126.17 131.00,118.83 135.00,116.00 C139.00,113.17 141.00,112.50 143.00,112.00 C145.00,111.50 146.33,112.83 147.00,113.00"
     fill="none"
     stroke="black"
     stroke-width="6.32"
     stroke-linecap="round"
     stroke-linejoin="round"
     id="path22"
     style="stroke-width:4;stroke-dasharray:none" />
  <path
     d="M92.00,121.00 C95.50,119.33 108.33,113.83 113.00,111.00 C117.67,108.17 119.17,106.33 120.00,104.00 C120.83,101.67 118.00,99.50 118.00,97.00 C118.00,94.50 118.67,91.00 120.00,89.00 C121.33,87.00 123.67,85.83 126.00,85.00 C128.33,84.17 131.50,82.33 134.00,84.00 C136.50,85.67 141.17,92.00 141.00,95.00 C140.83,98.00 136.50,100.67 133.00,102.00 C129.50,103.33 122.17,102.83 120.00,103.00"
     fill="none"
     stroke="black"
     stroke-width="4.47"
     stroke-linecap="round"
     stroke-linejoin="round"
     id="path23"
     style="stroke-width:4;stroke-dasharray:none" />
  <path
     d="M 155.21211,377.41619 C 154.22691,383.76989 152.62435,394.12161 151,405 c -1.8078,12.107 -5.07644,29.93456 -11,58 -5.49206,26.02105 -17,66 -27,97 -10,31 -27.5,74.17 -33,89"
     fill="none"
     stroke="#000000"
     stroke-width="4.47"
     stroke-linecap="round"
     stroke-linejoin="round"
     id="path25"
     style="stroke-width:4;stroke-dasharray:none"
     sodipodi:nodetypes="csssc" />
  <path
     d="M45.00,65.00 C45.33,64.17 44.17,63.17 47.00,60.00 C49.83,56.83 56.67,52.00 62.00,46.00 C67.33,40.00 74.67,28.67 79.00,24.00 C83.33,19.33 84.67,19.17 88.00,18.00 C91.33,16.83 97.17,17.17 99.00,17.00"
     fill="none"
     stroke="black"
     stroke-width="7.21"
     stroke-linecap="round"
     stroke-linejoin="round"
     id="path26"
     style="stroke-width:4;stroke-dasharray:none" />
  <path
     d="M33.00,92.00 C31.83,94.00 27.17,100.00 26.00,104.00 C24.83,108.00 24.50,112.67 26.00,116.00 C27.50,119.33 33.50,122.67 35.00,124.00"
     fill="none"
     stroke="black"
     stroke-width="6.32"
     stroke-linecap="round"
     stroke-linejoin="round"
     id="path27"
     style="stroke-width:4;stroke-dasharray:none" />
  <path
     d="M118.00,134.00 C119.00,135.67 120.17,139.50 124.00,144.00 C127.83,148.50 136.83,158.33 141.00,161.00 C145.17,163.67 147.67,159.83 149.00,160.00 C150.33,160.17 149.00,161.67 149.00,162.00"
     fill="none"
     stroke="black"
     stroke-width="7.21"
     stroke-linecap="round"
     stroke-linejoin="round"
     id="path28"
     style="stroke-width:4;stroke-dasharray:none" />
  <path
     d="M135.00,230.00 C134.67,228.83 134.17,225.00 133.00,223.00 C131.83,221.00 129.83,219.17 128.00,218.00 C126.17,216.83 124.00,216.17 122.00,216.00 C120.00,215.83 117.83,215.17 116.00,217.00 C114.17,218.83 111.17,224.50 111.00,227.00 C110.83,229.50 111.50,231.00 115.00,232.00 C118.50,233.00 128.67,233.33 132.00,233.00 C135.33,232.67 132.83,229.50 135.00,230.00 C137.17,230.50 141.00,234.83 145.00,236.00 C149.00,237.17 156.67,236.83 159.00,237.00"
     fill="none"
     stroke="black"
     stroke-width="6.00"
     stroke-linecap="round"
     stroke-linejoin="round"
     id="path31"
     style="stroke-width:4;stroke-dasharray:none" />
  <path
     d="m 143,235 c -2.5,2.67 -13,11.33 -15,16 -2,4.67 1.67,9.17 3,12 1.33,2.83 1.83,5.5 5,5 3.17,-0.5 10,-6 14,-8 4,-2 10.8143,-6.83405 11.01611,-4.1437 0.24806,3.30689 0.34859,9.37241 0.30195,18.09518 -0.0781,14.61685 -0.6231,37.69475 -3.31806,74.04852 -1.50001,20.23445 -2.08971,24.74483 -2.88888,30.18747"
     fill="none"
     stroke="#000000"
     stroke-width="7.21"
     stroke-linecap="round"
     stroke-linejoin="round"
     id="path32"
     style="stroke-width:4;stroke-dasharray:none"
     sodipodi:nodetypes="csssssssc" />
</svg>

<?xml version="1.0" encoding="UTF-8"?>
<svg xmlns="http://www.w3.org/2000/svg" viewBox="0 0 227 656" width="227" height="656">
  <path d="M138.00,9.00 C134.17,9.17 121.67,8.83 115.00,10.00 C108.33,11.17 99.17,11.33 98.00,16.00 C96.83,20.67 106.33,34.33 108.00,38.00" fill="none" stroke="black" stroke-width="6.00" stroke-linecap="round" stroke-linejoin="round"/>
  <path d="M143.00,10.00 C144.83,10.83 149.83,14.83 154.00,15.00 C158.17,15.17 164.00,11.50 168.00,11.00 C172.00,10.50 173.50,9.83 178.00,12.00 C182.50,14.17 190.50,20.17 195.00,24.00 C199.50,27.83 203.33,33.17 205.00,35.00" fill="none" stroke="black" stroke-width="6.00" stroke-linecap="round" stroke-linejoin="round"/>
  <path d="M121.00,21.00 C120.50,21.83 118.50,23.83 118.00,26.00 C117.50,28.17 118.00,32.67 118.00,34.00" fill="none" stroke="black" stroke-width="3.41" stroke-linecap="round" stroke-linejoin="round"/>
  <path d="M178.00,22.00 C176.83,22.67 173.33,24.00 171.00,26.00 C168.67,28.00 165.17,32.67 164.00,34.00" fill="none" stroke="black" stroke-width="2.83" stroke-linecap="round" stroke-linejoin="round"/>
  <path d="M153.00,26.00 C152.67,26.83 152.50,29.17 151.00,31.00 C149.50,32.83 145.17,36.00 144.00,37.00" fill="none" stroke="black" stroke-width="2.83" stroke-linecap="round" stroke-linejoin="round"/>
  <path d="M137.00,27.00 L130.00,36.00" fill="none" stroke="black" stroke-width="2.83" stroke-linecap="round" stroke-linejoin="round"/>
  <path d="M87.00,34.00 L99.00,50.00" fill="none" stroke="black" stroke-width="2.83" stroke-linecap="round" stroke-linejoin="round"/>
  <path d="M194.00,34.00 L175.00,46.00" fill="none" stroke="black" stroke-width="2.83" stroke-linecap="round" stroke-linejoin="round"/>
  <path d="M209.00,41.00 C210.17,43.50 215.67,51.00 216.00,56.00 C216.33,61.00 215.00,65.33 211.00,71.00 C207.00,76.67 196.83,86.17 192.00,90.00 C187.17,93.83 186.83,92.83 182.00,94.00 C177.17,95.17 166.17,96.50 163.00,97.00" fill="none" stroke="black" stroke-width="5.66" stroke-linecap="round" stroke-linejoin="round"/>
  <path d="M204.00,56.00 C202.67,55.83 199.17,54.67 196.00,55.00 C192.83,55.33 186.83,57.50 185.00,58.00" fill="none" stroke="black" stroke-width="2.00" stroke-linecap="round" stroke-linejoin="round"/>
  <path d="M83.00,59.00 C82.33,58.17 82.67,56.00 79.00,54.00 C75.33,52.00 63.67,48.17 61.00,47.00 C58.33,45.83 62.67,47.00 63.00,47.00" fill="none" stroke="black" stroke-width="2.83" stroke-linecap="round" stroke-linejoin="round"/>
  <path d="M142.00,60.00 L141.00,73.00" fill="none" stroke="black" stroke-width="2.41" stroke-linecap="round" stroke-linejoin="round"/>
  <path d="M58.00,61.00 C58.83,61.00 61.00,60.17 63.00,61.00 C65.00,61.83 68.83,65.17 70.00,66.00" fill="none" stroke="black" stroke-width="2.83" stroke-linecap="round" stroke-linejoin="round"/>
  <path d="M125.00,61.00 C124.50,61.67 122.50,62.83 122.00,65.00 C121.50,67.17 122.00,72.50 122.00,74.00" fill="none" stroke="black" stroke-width="2.83" stroke-linecap="round" stroke-linejoin="round"/>
  <path d="M158.00,67.00 C156.83,68.50 152.17,73.33 151.00,76.00 C149.83,78.67 151.00,81.83 151.00,83.00" fill="none" stroke="black" stroke-width="2.83" stroke-linecap="round" stroke-linejoin="round"/>
  <path d="M178.00,68.00 L189.00,71.00" fill="none" stroke="black" stroke-width="2.83" stroke-linecap="round" stroke-linejoin="round"/>
  <path d="M104.00,69.00 L109.00,82.00" fill="none" stroke="black" stroke-width="2.83" stroke-linecap="round" stroke-linejoin="round"/>
  <path d="M65.00,74.00 C64.17,73.33 62.83,71.17 60.00,70.00 C57.17,68.83 50.33,68.00 48.00,67.00 C45.67,66.00 47.00,64.17 46.00,64.00 C45.00,63.83 44.00,64.00 42.00,66.00 C40.00,68.00 35.67,71.67 34.00,76.00 C32.33,80.33 27.83,90.33 32.00,92.00 C36.17,93.67 53.83,86.83 59.00,86.00 C64.17,85.17 62.33,86.83 63.00,87.00" fill="none" stroke="black" stroke-width="5.66" stroke-linecap="round" stroke-linejoin="round"/>
  <path d="M85.00,86.00 L103.00,91.00" fill="none" stroke="black" stroke-width="2.83" stroke-linecap="round" stroke-linejoin="round"/>
  <path d="M155.00,101.00 C153.50,102.83 146.67,107.00 146.00,112.00 C145.33,117.00 150.50,122.50 151.00,131.00 C151.50,139.50 147.83,148.33 149.00,163.00 C150.17,177.67 156.00,203.50 158.00,219.00 C160.00,234.50 160.50,249.83 161.00,256.00" fill="none" stroke="black" stroke-width="6.00" stroke-linecap="round" stroke-linejoin="round"/>
  <path d="M70.00,103.00 L53.00,110.00" fill="none" stroke="black" stroke-width="2.83" stroke-linecap="round" stroke-linejoin="round"/>
  <path d="M48.00,114.00 C45.67,115.50 36.00,120.67 34.00,123.00 C32.00,125.33 33.00,125.33 36.00,128.00 C39.00,130.67 46.83,137.00 52.00,139.00 C57.17,141.00 64.00,140.17 67.00,140.00 C70.00,139.83 65.50,138.33 70.00,138.00 C74.50,137.67 86.00,138.83 94.00,138.00 C102.00,137.17 113.83,134.50 118.00,133.00 C122.17,131.50 116.17,131.83 119.00,129.00 C121.83,126.17 131.00,118.83 135.00,116.00 C139.00,113.17 141.00,112.50 143.00,112.00 C145.00,111.50 146.33,112.83 147.00,113.00" fill="none" stroke="black" stroke-width="6.32" stroke-linecap="round" stroke-linejoin="round"/>
  <path d="M92.00,121.00 C95.50,119.33 108.33,113.83 113.00,111.00 C117.67,108.17 119.17,106.33 120.00,104.00 C120.83,101.67 118.00,99.50 118.00,97.00 C118.00,94.50 118.67,91.00 120.00,89.00 C121.33,87.00 123.67,85.83 126.00,85.00 C128.33,84.17 131.50,82.33 134.00,84.00 C136.50,85.67 141.17,92.00 141.00,95.00 C140.83,98.00 136.50,100.67 133.00,102.00 C129.50,103.33 122.17,102.83 120.00,103.00" fill="none" stroke="black" stroke-width="4.47" stroke-linecap="round" stroke-linejoin="round"/>
  <path d="M43.00,200.00 C42.83,201.00 42.67,204.50 42.00,206.00 C41.33,207.50 41.17,209.17 39.00,209.00 C36.83,208.83 31.33,204.00 29.00,205.00 C26.67,206.00 25.67,213.33 25.00,215.00" fill="none" stroke="black" stroke-width="4.00" stroke-linecap="round" stroke-linejoin="round"/>
  <path d="M144.00,603.00 C146.33,593.67 154.17,568.50 158.00,547.00 C161.83,525.50 165.50,493.33 167.00,474.00 C168.50,454.67 167.83,442.50 167.00,431.00 C166.17,419.50 163.83,410.33 162.00,405.00 C160.17,399.67 157.83,399.00 156.00,399.00 C154.17,399.00 153.67,394.33 151.00,405.00 C148.33,415.67 146.33,437.17 140.00,463.00 C133.67,488.83 123.00,529.00 113.00,560.00 C103.00,591.00 85.50,634.17 80.00,649.00" fill="none" stroke="black" stroke-width="4.47" stroke-linecap="round" stroke-linejoin="round"/>
  <path d="M45.00,65.00 C45.33,64.17 44.17,63.17 47.00,60.00 C49.83,56.83 56.67,52.00 62.00,46.00 C67.33,40.00 74.67,28.67 79.00,24.00 C83.33,19.33 84.67,19.17 88.00,18.00 C91.33,16.83 97.17,17.17 99.00,17.00" fill="none" stroke="black" stroke-width="7.21" stroke-linecap="round" stroke-linejoin="round"/>
  <path d="M33.00,92.00 C31.83,94.00 27.17,100.00 26.00,104.00 C24.83,108.00 24.50,112.67 26.00,116.00 C27.50,119.33 33.50,122.67 35.00,124.00" fill="none" stroke="black" stroke-width="6.32" stroke-linecap="round" stroke-linejoin="round"/>
  <path d="M118.00,134.00 C119.00,135.67 120.17,139.50 124.00,144.00 C127.83,148.50 136.83,158.33 141.00,161.00 C145.17,163.67 147.67,159.83 149.00,160.00 C150.33,160.17 149.00,161.67 149.00,162.00" fill="none" stroke="black" stroke-width="7.21" stroke-linecap="round" stroke-linejoin="round"/>
  <path d="M30.00,204.00 C31.33,202.17 34.00,197.33 38.00,193.00 C42.00,188.67 49.33,181.83 54.00,178.00 C58.67,174.17 62.83,171.17 66.00,170.00 C69.17,168.83 71.83,169.67 73.00,171.00 C74.17,172.33 74.50,173.00 73.00,178.00 C71.50,183.00 65.50,195.50 64.00,201.00 C62.50,206.50 62.17,207.67 64.00,211.00 C65.83,214.33 73.00,217.33 75.00,221.00 C77.00,224.67 70.83,224.83 76.00,233.00 C81.17,241.17 99.50,260.33 106.00,270.00 C112.50,279.67 114.67,287.50 115.00,291.00 C115.33,294.50 111.33,291.83 108.00,291.00 C104.67,290.17 97.17,284.67 95.00,286.00 C92.83,287.33 96.33,295.17 95.00,299.00 C93.67,302.83 89.67,306.83 87.00,309.00 C84.33,311.17 81.83,312.67 79.00,312.00 C76.17,311.33 72.00,307.17 70.00,305.00 C68.00,302.83 67.17,301.17 67.00,299.00 C66.83,296.83 68.00,293.83 69.00,292.00 C70.00,290.17 71.17,289.00 73.00,288.00 C74.83,287.00 76.67,286.17 80.00,286.00 C83.33,285.83 90.83,286.83 93.00,287.00" fill="none" stroke="black" stroke-width="6.00" stroke-linecap="round" stroke-linejoin="round"/>
  <path d="M36.00,209.00 C36.33,209.00 37.67,208.33 38.00,209.00 C38.33,209.67 38.83,211.83 38.00,213.00 C37.17,214.17 35.17,215.67 33.00,216.00 C30.83,216.33 26.00,215.17 25.00,215.00 C24.00,214.83 27.17,214.67 27.00,215.00 C26.83,215.33 25.17,214.67 24.00,217.00 C22.83,219.33 19.67,226.83 20.00,229.00 C20.33,231.17 22.00,230.67 26.00,230.00 C30.00,229.33 37.50,224.67 44.00,225.00 C50.50,225.33 59.83,230.67 65.00,232.00 C70.17,233.33 73.33,232.83 75.00,233.00" fill="none" stroke="black" stroke-width="8.00" stroke-linecap="round" stroke-linejoin="round"/>
  <path d="M135.00,230.00 C134.67,228.83 134.17,225.00 133.00,223.00 C131.83,221.00 129.83,219.17 128.00,218.00 C126.17,216.83 124.00,216.17 122.00,216.00 C120.00,215.83 117.83,215.17 116.00,217.00 C114.17,218.83 111.17,224.50 111.00,227.00 C110.83,229.50 111.50,231.00 115.00,232.00 C118.50,233.00 128.67,233.33 132.00,233.00 C135.33,232.67 132.83,229.50 135.00,230.00 C137.17,230.50 141.00,234.83 145.00,236.00 C149.00,237.17 156.67,236.83 159.00,237.00" fill="none" stroke="black" stroke-width="6.00" stroke-linecap="round" stroke-linejoin="round"/>
  <path d="M143.00,235.00 C140.50,237.67 130.00,246.33 128.00,251.00 C126.00,255.67 129.67,260.17 131.00,263.00 C132.33,265.83 132.83,268.50 136.00,268.00 C139.17,267.50 146.00,262.00 150.00,260.00 C154.00,258.00 157.83,256.50 160.00,256.00 C162.17,255.50 163.33,241.67 163.00,257.00 C162.67,272.33 159.50,331.83 158.00,348.00 C156.50,364.17 155.67,354.00 154.00,354.00 C152.33,354.00 150.83,353.00 148.00,348.00 C145.17,343.00 142.50,333.67 137.00,324.00 C131.50,314.33 118.67,295.67 115.00,290.00" fill="none" stroke="black" stroke-width="7.21" stroke-linecap="round" stroke-linejoin="round"/>
  <path d="M154.00,354.00 L155.00,400.00" fill="none" stroke="black" stroke-width="10.00" stroke-linecap="round" stroke-linejoin="round"/>
</svg>
